www/b14d48e0-1285-11e4-9191-0800200c9a66/17.svg

<?xml version="1.0" encoding="UTF-8" standalone="no"?>
<svg xmlns="http://www.w3.org/2000/svg" xmlns:xlink="http://www.w3.org/1999/xlink" baseProfile="tiny" height="516" width="745.5" version="1.1" viewBox="-20 -20 745.5 516">
  <defs>
    <path id="arrow" stroke-width="0" d="m0 0v12l16-6z"/>
  </defs>
  <rect y="-20" width="745.5" fill="transparent" x="-20" height="516"/>
  <a id="a0" xlink:href="5.html">
    <path id="a0" stroke="blue" stroke-width="2" fill="none" d="m0 0h179.5v35"/>
    <use xlink:href="#arrow" transform="translate(185.5 19) rotate(90)"/>
    <text y="15" x="82" font-size="15" text-anchor="middle" fill="black">S01</text>
  </a>
  <a id="a1" xlink:href="0.html">
    <path id="a1" stroke="blue" stroke-width="2" fill="none" d="m0 25h210.5v10"/>
    <use xlink:href="#arrow" transform="translate(216.5 19) rotate(90)"/>
    <text y="40" x="82" font-size="15" text-anchor="middle" fill="black">S02</text>
  </a>
  <a id="a2" xlink:href="2.html">
    <path id="a2" stroke="blue" stroke-width="2" fill="none" d="m112 187.5h197v10"/>
    <use xlink:href="#arrow" transform="translate(315 181.5) rotate(90)"/>
    <text y="202.5" x="195" font-size="15" text-anchor="middle" fill="black">S05</text>
  </a>
  <a id="a3" xlink:href="5.html">
    <path id="a3" stroke="blue" stroke-width="2" fill="none" d="m52 187.5h-26v162.5h425.75v-350h142v375h-26"/>
    <use xlink:href="#arrow" transform="translate(36 181.5)"/>
    <text y="365" x="195" font-size="15" text-anchor="middle" fill="black">S09</text>
  </a>
  <a id="a4" xlink:href="6.html">
    <path id="a4" stroke="blue" stroke-width="2" fill="none" d="m195 116.5v46h266.75v212.5h26"/>
    <use xlink:href="#arrow" transform="translate(471.75 369)"/>
    <text y="177.5" x="309" font-size="15" text-anchor="middle" fill="black">S07</text>
  </a>
  <a id="a5" xlink:href="4.html">
    <path id="a5" stroke="blue" stroke-width="2" fill="none" d="m309 279v46h218.75v10"/>
    <use xlink:href="#arrow" transform="translate(533.75 319) rotate(90)"/>
    <text y="340" x="408.875" font-size="15" text-anchor="middle" fill="black">S06</text>
  </a>
  <a id="a6" xlink:href="0.html">
    <path id="a6" stroke="blue" stroke-width="2" fill="none" d="m527.75 415v46h177.75"/>
    <use xlink:href="#arrow" transform="translate(689.5 455)"/>
    <text y="476" x="636.625" font-size="15" text-anchor="middle" fill="black">S11</text>
  </a>
  <a id="a7" xlink:href="3.html">
    <rect id="a7" height="81.5" width="62" stroke="#000" y="197.5" x="278" stroke-width=".5" fill="none"/>
    <image y="197.5" x="278" xlink:href="b14d48e0-1285-11e4-9191-0800200c9a66/Compressor.svg" width="62" height="81.5"/>
    <text y="315" x="309" font-size="15" text-anchor="middle" fill="black">T</text>
  </a>
  <a id="a8" xlink:href="0.html">
    <rect id="a8" height="81.5" width="62" stroke="#000" y="35" x="164" stroke-width=".5" fill="none"/>
    <image y="35" x="164" xlink:href="b14d48e0-1285-11e4-9191-0800200c9a66/Compressor.svg" width="62" height="81.5"/>
    <text y="152.5" x="195" font-size="15" text-anchor="middle" fill="black">C</text>
  </a>
  <a id="a9" xlink:href="1.html">
    <rect id="a9" height="99.986" width="60" stroke="#000" y="137.51" x="52" stroke-width=".5" fill="none"/>
    <image y="137.51" x="52" xlink:href="b14d48e0-1285-11e4-9191-0800200c9a66/FlashDrum.svg" width="60" height="99.986"/>
    <text y="252.493" x="82" font-size="15" text-anchor="middle" fill="black">RX</text>
  </a>
  <a id="a10" xlink:href="6.html">
    <rect id="a10" height="80" width="80" stroke="#000" y="335" x="487.75" stroke-width=".5" fill="none"/>
    <image y="335" x="487.75" xlink:href="b14d48e0-1285-11e4-9191-0800200c9a66/Exchanger.svg" width="80" height="80"/>
    <text y="451" x="527.75" font-size="15" text-anchor="middle" fill="black">HX</text>
  </a>
</svg>

<?xml version="1.0" encoding="UTF-8"?>
<!DOCTYPE svg PUBLIC "-//W3C//DTD SVG 1.1 Tiny//EN" "http://www.w3.org/Graphics/SVG/1.1/DTD/svg11-tiny.dtd">
<svg version="1.1" baseProfile="tiny" xmlns="http://www.w3.org/2000/svg" xmlns:xlink="http://www.w3.org/1999/xlink" width="745.5" height="516" viewBox="-20 -20 745.5 516" >
  <defs>
    <path id="arrow" stroke-width="0" d="M 0 0 L 0 12 L 16 6 Z" />
  </defs>
  <rect fill="transparent" stroke="none" x="-20" y="-20" width="745.5" height="516" />
  <a xlink:href="48.html" id="a0">
    <path id="a0" fill="none" stroke="blue" stroke-width="2" d="M 0 0 L 179.5 0 L 179.5 35 " />
    <use xlink:href="#arrow" transform="translate(185.5 19) rotate(90 0.0 0.0)" />
    <text text-anchor="middle" fill="black" font-size="15" x="82" y="15">S01</text>
  </a>
  <a xlink:href="50.html" id="a1">
    <path id="a1" fill="none" stroke="blue" stroke-width="2" d="M 0 25 L 210.5 25 L 210.5 35 " />
    <use xlink:href="#arrow" transform="translate(216.5 19) rotate(90 0.0 0.0)" />
    <text text-anchor="middle" fill="black" font-size="15" x="82" y="40">S02</text>
  </a>
  <a xlink:href="52.html" id="a2">
    <path id="a2" fill="none" stroke="blue" stroke-width="2" d="M 112 187.5 L 309 187.5 L 309 197.5 " />
    <use xlink:href="#arrow" transform="translate(315 181.5) rotate(90 0.0 0.0)" />
    <text text-anchor="middle" fill="black" font-size="15" x="195" y="202.5">S05</text>
  </a>
  <a xlink:href="58.html" id="a3">
    <path id="a3" fill="none" stroke="blue" stroke-width="2" d="M 52 187.5 L 26 187.5 L 26 350 L 451.75 350 L 451.75 0 L 593.75 0 L 593.75 375 L 567.75 375 " />
    <use xlink:href="#arrow" transform="translate(36 181.5)" />
    <text text-anchor="middle" fill="black" font-size="15" x="195" y="365">S09</text>
  </a>
  <a xlink:href="56.html" id="a4">
    <path id="a4" fill="none" stroke="blue" stroke-width="2" d="M 195 116.5 L 195 162.5 L 461.75 162.5 L 461.75 375 L 487.75 375 " />
    <use xlink:href="#arrow" transform="translate(471.75 369)" />
    <text text-anchor="middle" fill="black" font-size="15" x="309" y="177.5">S07</text>
  </a>
  <a xlink:href="54.html" id="a5">
    <path id="a5" fill="none" stroke="blue" stroke-width="2" d="M 309 279 L 309 325 L 527.75 325 L 527.75 335 " />
    <use xlink:href="#arrow" transform="translate(533.75 319) rotate(90 0.0 0.0)" />
    <text text-anchor="middle" fill="black" font-size="15" x="408.875" y="340">S06</text>
  </a>
  <a xlink:href="60.html" id="a6">
    <path id="a6" fill="none" stroke="blue" stroke-width="2" d="M 527.75 415 L 527.75 461 L 705.5 461 " />
    <use xlink:href="#arrow" transform="translate(689.5 455)" />
    <text text-anchor="middle" fill="black" font-size="15" x="636.625" y="476">S11</text>
  </a>
  <a xlink:href="39.html" id="a7">
    <rect id="a7" stroke="black" stroke-width="0.5" fill="none" x="278" y="197.5" width="62" height="81.5" />
    <image x="278" y="197.5" width="62" height="81.5" xlink:href="b14d48e0-1285-11e4-9191-0800200c9a66/Compressor.svg" />
    <text text-anchor="middle" fill="black" font-size="15" x="309" y="315">T</text>
  </a>
  <a xlink:href="40.html" id="a8">
    <rect id="a8" stroke="black" stroke-width="0.5" fill="none" x="164" y="35" width="62" height="81.5" />
    <image x="164" y="35" width="62" height="81.5" xlink:href="b14d48e0-1285-11e4-9191-0800200c9a66/Compressor.svg" />
    <text text-anchor="middle" fill="black" font-size="15" x="195" y="152.5">C</text>
  </a>
  <a xlink:href="41.html" id="a9">
    <rect id="a9" stroke="black" stroke-width="0.5" fill="none" x="52" y="137.507" width="60" height="99.9857" />
    <image x="52" y="137.507" width="60" height="99.9857" xlink:href="b14d48e0-1285-11e4-9191-0800200c9a66/FlashDrum.svg" />
    <text text-anchor="middle" fill="black" font-size="15" x="82" y="252.493">RX</text>
  </a>
  <a xlink:href="47.html" id="a10">
    <rect id="a10" stroke="black" stroke-width="0.5" fill="none" x="487.75" y="335" width="80" height="80" />
    <image x="487.75" y="335" width="80" height="80" xlink:href="b14d48e0-1285-11e4-9191-0800200c9a66/Exchanger.svg" />
    <text text-anchor="middle" fill="black" font-size="15" x="527.75" y="451">HX</text>
  </a>
</svg>
